X:5707
T:Gan Ainm
R:Reel
S:
H:
N:
D:Milltown Session
Z:Adrian Scahill
M:4/4
L:1/8
K:A
c3d edcB|ABcA BAFG|AEE2 FECE|FEFG AEFA|\
EAcA EAcE|GABc dBcd|ecdB cBAB|c2Bc A3B:||\
K:C
c3d ecAc|B3c dBGd|ecdB cBAB|c2Bd AGFG|\
EAcA EAcA|GABc dBGd|ecdB cBAB|c2 Bc A4:||


